X:1225
L:1/8
M:2/4
K:D
 d | AD FD | AD GB | AD FD | (3EGB E2 | AD FD | Ad cd | BG (3EGA | FD D2 | dA Bd | Ad Fd | dA Bd | 
 Fd Ed | dA Bd | Ad cd | BG (3EGA | FD D z ||

